icons/kitchen-two-color.svg

<?xml version="1.0" encoding="UTF-8"?><svg xmlns="http://www.w3.org/2000/svg" viewBox="0 0 50 50"><g id="uuid-fdd17274-a2c3-418a-8935-ba9d0a50db5d"><g><path d="M4.04,28.81v19.77H48.71V28.81H4.04Z" fill="#ffcd00"/><path d="M34.24,11.78l-3.79-3.48c-.1-.09-.16-.23-.16-.37v-3.75h-7.81l-.03,3.82c0,.15-.07,.28-.18,.38l-4.02,3.39v5.17h15.99v-5.15Z" fill="#ffcd00"/><path d="M47.46,26.06h-3.98v-6.5c0-1.98-1.61-3.59-3.59-3.59s-3.59,1.61-3.59,3.59v2.47c0,.28,.22,.5,.5,.5s.5-.22,.5-.5v-2.47c0-1.43,1.16-2.59,2.59-2.59s2.59,1.16,2.59,2.59v6.5H1.79c-.28,0-.5,.22-.5,.5v20.77c0,.28,.22,.5,.5,.5H47.46c.28,0,.5-.22,.5-.5V26.56c0-.28-.22-.5-.5-.5Zm-31.23,9.18h16.62v11.59H16.23v-11.59Zm16.62-1H16.23v-7.18h16.62v7.18ZM2.29,27.06H15.23v19.77H2.29V27.06Zm44.67,19.77h-13.11V27.06h8.99s.1,.03,.15,.03,.1-.01,.15-.03h3.83v19.77Z"/><path d="M16,16.18h16.99c.28,0,.5-.22,.5-.5v-5.87c0-.14-.06-.27-.16-.37l-3.79-3.48V1.93c0-.28-.22-.5-.5-.5h-8.81c-.27,0-.5,.22-.5,.5l-.03,4.08-4.02,3.39c-.11,.1-.18,.23-.18,.38v5.9c0,.28,.22,.5,.5,.5Zm.5-6.17l4.02-3.39c.11-.09,.18-.23,.18-.38l.03-3.82h7.81v3.75c0,.14,.06,.27,.16,.37l3.79,3.48v5.15h-15.99v-5.17Z"/><circle cx="24.73" cy="31.2" r=".74"/><path d="M20.21,31.96c.41,0,.74-.33,.74-.74s-.33-.74-.74-.74-.74,.33-.74,.74,.33,.74,.74,.74Z"/><path d="M29.22,31.93c.41,0,.74-.33,.74-.74s-.33-.74-.74-.74-.74,.33-.74,.74,.33,.74,.74,.74Z"/><path d="M12.86,33.8c-.41,0-.74,.33-.74,.74s.33,.74,.74,.74,.74-.33,.74-.74-.33-.74-.74-.74Z"/><path d="M36.26,33.81c-.41,0-.74,.33-.74,.74s.33,.74,.74,.74,.74-.33,.74-.74-.33-.74-.74-.74Z"/></g></g><g id="uuid-0142894e-5d50-4215-b2da-0eb4f28dcbce"><text transform="translate(.35 54.89)" font-family="Roboto-Regular, Roboto" font-size="6"><tspan x="0" y="0">kitchen</tspan></text></g></svg>

<svg xmlns="http://www.w3.org/2000/svg" viewBox="0 0 50 50"><g id="f625ff77-5ef6-436b-80bc-76e5a089936f" data-name="ICONS"><path d="M4,28.81V48.57H48.71V28.81Z" fill="#fdd600"/><path d="M34.24,11.78,30.44,8.3a.51.51,0,0,1-.16-.37V4.18H22.47l0,3.81a.49.49,0,0,1-.18.38l-4,3.39v5.17h16Z" fill="#fdd600"/><path d="M47.46,26.06h-4v-6.5a3.59,3.59,0,0,0-7.18,0V22a.5.5,0,0,0,.5.5.5.5,0,0,0,.5-.5V19.56a2.59,2.59,0,0,1,5.18,0v6.5H1.79a.5.5,0,0,0-.5.5V47.32a.5.5,0,0,0,.5.5H47.46a.5.5,0,0,0,.5-.5V26.56A.5.5,0,0,0,47.46,26.06ZM16.23,35.24H32.84V46.82H16.23Zm16.61-1H16.23V27.06H32.84ZM2.29,27.06H15.23V46.82H2.29ZM47,46.82H33.84V27.06h9a.39.39,0,0,0,.3,0H47Z" fill="#231f20"/><path d="M16,16.18H33a.5.5,0,0,0,.5-.5V9.81a.48.48,0,0,0-.17-.37L29.53,6v-4a.5.5,0,0,0-.5-.5H20.22a.5.5,0,0,0-.5.49l0,4.09-4,3.39a.49.49,0,0,0-.17.38v5.9A.5.5,0,0,0,16,16.18ZM16.5,10l4-3.39a.49.49,0,0,0,.18-.38l0-3.81h7.81V6.18a.51.51,0,0,0,.16.37L32.49,10v5.15h-16Z" fill="#231f20"/><circle cx="24.73" cy="31.2" r="0.74" fill="#231f20"/><path d="M20.21,32a.74.74,0,1,0-.74-.74A.74.74,0,0,0,20.21,32Z" fill="#231f20"/><path d="M29.22,31.93a.74.74,0,1,0-.74-.74A.74.74,0,0,0,29.22,31.93Z" fill="#231f20"/><path d="M12.86,33.8a.74.74,0,1,0,0,1.48.74.74,0,0,0,0-1.48Z" fill="#231f20"/><path d="M36.26,33.81a.74.74,0,1,0,.75.74A.74.74,0,0,0,36.26,33.81Z" fill="#231f20"/></g><g id="b155889b-8563-4d95-98c2-ee13458278d4" data-name="LABELS"><text transform="translate(0.35 54.89)" font-size="6" fill="#231f20" font-family="Roboto-Regular, Roboto">kitchen</text></g></svg>
